icons/speech-bubbles.svg

<svg xmlns="http://www.w3.org/2000/svg" width="24" height="24" viewBox="0 0 24 24">
  <path d="M20.481,10.721 C22.418,11.22 23.85,12.978 23.85,15.071 L23.847,15.225 L23.835,15.439 C23.668,17.494 22.118,19.159 20.117,19.499 L20.001,19.516 L20.001,20.846 L19.994,20.939 C19.934,21.364 19.466,21.62 19.067,21.417 L18.857,21.31 L18.637,21.192 L18.365,21.039 C17.571,20.577 16.989,20.102 16.621,19.599 L16.594,19.562 L16.151,19.562 L15.94,19.557 C14.4,19.486 13.064,18.64 12.31,17.4 L13.441,17.4 C17.101,17.4 20.111,14.56 20.465,10.921 L20.481,10.721 Z M12,2 C15.866,2 19,5.134 19,9 C19,12.866 15.866,16 12,16 L11.309,16 L11.269,16.059 C10.63,16.929 9.582,17.745 8.125,18.541 L7.781,18.724 L7.455,18.891 C6.789,19.23 6,18.747 6,18 L6,15.928 L5.818,15.901 C2.592,15.352 0.118,12.596 0.004,9.241 L0,9 C0,5.134 3.134,2 7,2 L12,2 Z"/>
</svg>

<svg xmlns="http://www.w3.org/2000/svg" viewBox="0 0 24 24">
  <path d="M20.48 10.72a4.5 4.5 0 0 1 3.37 4.35v.15l-.02.22a4.5 4.5 0 0 1-3.71 4.06l-.12.02v1.42a.64.64 0 0 1-.93.48l-.21-.11-.22-.12-.28-.15a5.63 5.63 0 0 1-1.74-1.44l-.03-.04h-.65a4.49 4.49 0 0 1-3.63-2.16h1.13a7.11 7.11 0 0 0 7.03-6.48l.01-.2zM12 2a7 7 0 1 1 0 14h-.7l-.03.06a9.46 9.46 0 0 1-3.14 2.48l-.35.18-.33.17A1 1 0 0 1 6 18v-2.07l-.18-.03A7 7 0 0 1 0 9.24V9a7 7 0 0 1 7-7h5z"/>
</svg>
